X:142
T:O Lord My Soul Convicted
%%stretchlast false
M:4/4
L:1/4
K:G clef=C1
"^I"[G,GBd] "^I¹"[B,Gdg] "^I"[G,GBd] "^IV"[CGce] | "^IV¹"[E,Gce]/ "^vi"[E,GBe]/ "^V¹"[F,DAd] "^V7"[D,DFc] "^I"[G,DGB] | [G,DGB] "^IV¹"[E,CGc] "^I"[G,DGB] "^V"[D,DFA] | "^iii"[B,Fd] "^vi7¹"[G,EBd] "^II"[A,EA^c]/ "^II7"[A,EG^c]/ "^V"[D,DFd] | [DFAd]/ "^V7³"[CFAd]/ "^I¹"[B,Gdg] "^vii°¹"[A,Fca] "^I"[G,GBb] | "^I¹"[B,Ddg] "^ii"[A,Ecc']/ [A,Fcc']/ "^I"[G,Gdb] "^V"[DFda] | "^I"[G,Gdb] "^I¹"[B,Gdg] "^IV"[CGce]/ "^IVmaj7"[CGBe]/ "^V"[DFAd] | "^vi"[EGg] "^ii7¹"[CEAg] "^V7"[Dcf] "^I"[G,DBg] |]
